X:1
T:Sunday
T:Sunday
C:Ned Miller, Chester Cohn, Jule Styne, Bennie Krueger
Z:All Rights Reserved
L:1/4
M:2/2
K:C
V:1 treble nm="Piano" snm="Pno."
%%MIDI program 0
V:1
|:"C" d2 c2 | B/ d c/-"Cdim" c A |"G7" A2 G2 |"A7" A/ _B A/- A G |"D7" E2 D2 | %5
w: I'm blue|ev- ry Mon- * day,|think- ing|ov- er Sun- * day|That one|
"G7" E G"G+" A/ B A/- |"C" A4- | A G"D7" A"G7" B |"C" d2 c2 | B/ d c/-"Cdim" c A |"G7" A2 G2 | %11
w: day when I'm with you,|_|* It seems that|I sigh|all day Tues- * day,|I cry|
"A7" A/ _B A/- A G |"D7" E2 D2 |"G7" E G A G |"C" c4- | c B c ^c |"E7" d2 c2 | B/ c d/- d e | %18
w: all day Wednes- * day,|Oh, my!|how I long for|you,|_ And then comes|Thurs- day,|Gee! it's long _ it|
"A7" B A B A- | A4 |"D7" B2 A2 | A/ B d/- d B |"G7" A G A G- | G G"D7" A"G7" B |"C" d2 c2 | %25
w: nev- er goes by.|_|Fri- day|makes me feel _ like|I'm gon- na die,|_ But af- ter|pay- day|
 B/ d c/-"Cdim" c A |"G7" A2 G2 |"A7" A/ _B A/- A G |"D7" E2 D2 |"G7" A G G A |1"C" c4- || %31
w: is my fun- * day,|I shine|all day Sun- * day,|That one|day when I'm with|you.|
"D7" c3"G7" z :|2"C" c4- || c3 z |] %34
w: _|you..|_|

